www/assets/icons/signal_wifi_4_bar_lock.svg

<svg xmlns="http://www.w3.org/2000/svg" width="24" height="24" viewBox="0 0 24 24" fill='currentColor'><path d="M21.98 10.5 24 8.48A16.88 16.88 0 0 0 12 3.5c-4.69 0-8.93 1.9-12 4.98L12 20.5l3.05-3.05V14.5c0-.45.09-.88.23-1.29.54-1.57 2.01-2.71 3.77-2.71z"/><path d="M22 15.5v-1c0-1.1-.9-2-2-2s-2 .9-2 2v1c-.55 0-1 .45-1 1v3c0 .55.45 1 1 1h4c.55 0 1-.45 1-1v-3c0-.55-.45-1-1-1m-1 0h-2v-1c0-.55.45-1 1-1s1 .45 1 1z"/></svg>

<svg width="24" height="24" viewBox="0 0 24 24" xmlns="http://www.w3.org/2000/svg" fill='currentColor'><path d="M21.98 10.5L24 8.48C20.93 5.4 16.69 3.5 12 3.5C7.31 3.5 3.07 5.4 0 8.48L12 20.5L15.05 17.45V14.5C15.05 14.05 15.14 13.62 15.28 13.21C15.82 11.64 17.29 10.5 19.05 10.5H21.98Z"/><path d="M22 15.5V14.5C22 13.4 21.1 12.5 20 12.5C18.9 12.5 18 13.4 18 14.5V15.5C17.45 15.5 17 15.95 17 16.5V19.5C17 20.05 17.45 20.5 18 20.5H22C22.55 20.5 23 20.05 23 19.5V16.5C23 15.95 22.55 15.5 22 15.5ZM21 15.5H19V14.5C19 13.95 19.45 13.5 20 13.5C20.55 13.5 21 13.95 21 14.5V15.5Z"/></svg>
